public/images/flags/NK.svg

<svg width="21" height="15" viewBox="0 0 21 15" fill="none" xmlns="http://www.w3.org/2000/svg">
<path d="M2 0H19C19.5304 0 20.0391 0.210712 20.4142 0.585785C20.7893 0.960858 21 1.46957 21 2V13C21 13.5304 20.7893 14.0391 20.4142 14.4142C20.0391 14.7893 19.5304 15 19 15H2C1.46957 15 0.960858 14.7893 0.585785 14.4142C0.210712 14.0391 0 13.5304 0 13V2C0 1.46957 0.210712 0.960858 0.585785 0.585785C0.960858 0.210712 1.46957 0 2 0Z" fill="#F6F9FC"/>
<path d="M1.995 2.51616e-07H19.005C19.5332 0.00131649 20.0394 0.211515 20.4132 0.584717C20.7869 0.957919 20.9979 1.46382 21 1.992V13.008C20.9995 13.5367 20.789 14.0435 20.4149 14.417C20.0408 14.7906 19.5337 15.0003 19.005 15H1.995C1.46681 14.9987 0.960586 14.7885 0.586823 14.4153C0.213059 14.0421 0.0021111 13.5362 0 13.008V1.992C0.000530193 1.46333 0.210977 0.956514 0.585083 0.58297C0.959189 0.209426 1.46633 -0.000265144 1.995 2.51616e-07ZM1.995 1C1.73075 1.00053 1.47752 1.10594 1.29095 1.29308C1.10438 1.48021 0.999734 1.73375 1 1.998V13.002C1.00052 13.266 1.10544 13.5191 1.29184 13.7061C1.47824 13.893 1.73099 13.9987 1.995 14H19.005C19.2693 13.9995 19.5225 13.8941 19.709 13.7069C19.8956 13.5198 20.0003 13.2662 20 13.002V1.998C19.9995 1.734 19.8946 1.48091 19.7082 1.29395C19.5218 1.10698 19.269 1.00132 19.005 1H1.995Z" fill="#DFE5EB"/>
<path d="M7 7.5C7.00023 6.9752 7.11847 6.45716 7.34598 5.98424C7.57349 5.51131 7.90444 5.0956 8.31433 4.76788C8.72423 4.44015 9.20257 4.2088 9.71396 4.09093C10.2254 3.97307 10.7567 3.97172 11.2687 4.08698C11.7807 4.20224 12.2602 4.43117 12.6718 4.7568C13.0833 5.08244 13.4164 5.49646 13.6463 5.96822C13.8762 6.43999 13.997 6.95741 13.9999 7.48221C14.0028 8.007 13.8877 8.52573 13.663 9H7.33701C7.11445 8.53131 6.99931 8.01885 7 7.5Z" fill="#E25950"/>
<path d="M14 3.207V3H15.207L16.5 4.793V5H15.293L14 3.207ZM4.5 4.793L5.793 3H7V3.207L5.707 5H4.5V4.793ZM14 11.793L15.293 10H16.5V10.207L15.207 12H14V11.793ZM4.5 10.207V10H5.707L7 11.793V12H5.793L4.5 10.207Z" fill="black" fill-opacity="0.9"/>
<path d="M12.175 6.736C12.5849 6.71752 12.988 6.84506 13.3127 7.09592C13.6373 7.34679 13.8625 7.70472 13.948 8.106C13.8073 8.9049 13.3935 9.63014 12.7774 10.1578C12.1613 10.6855 11.381 10.9828 10.57 10.999C9.92589 10.994 9.29444 10.8195 8.7392 10.4929C8.18395 10.1664 7.72449 9.69946 7.40701 9.139C7.14375 8.64327 7.00411 8.09128 7 7.53C7.00409 6.99568 7.13866 6.47046 7.392 6C7.394 6.047 7.396 6.098 7.396 6.154C7.396 6.828 7.39301 8.238 9.08801 8.238C10.783 8.238 10.734 6.736 12.175 6.736Z" fill="#43458B"/>
</svg>

<svg width="21" height="15" fill="none" xmlns="http://www.w3.org/2000/svg"><path d="M2 0h17a2 2 0 0 1 2 2v11a2 2 0 0 1-2 2H2a2 2 0 0 1-2-2V2a2 2 0 0 1 2-2z" fill="#F6F9FC"/><path d="M1.995 0h17.01A2 2 0 0 1 21 1.992v11.016A1.994 1.994 0 0 1 19.005 15H1.995A2 2 0 0 1 0 13.008V1.992A1.994 1.994 0 0 1 1.995 0zm0 1A.997.997 0 0 0 1 1.998v11.004a1 1 0 0 0 .995.998h17.01a.996.996 0 0 0 .995-.998V1.998A1 1 0 0 0 19.005 1H1.995z" fill="#DFE5EB"/><path d="M7 7.5A3.5 3.5 0 1 1 13.663 9H7.337A3.486 3.486 0 0 1 7 7.5z" fill="#E25950"/><path d="M14 3.207V3h1.207L16.5 4.793V5h-1.207L14 3.207zM4.5 4.793L5.793 3H7v.207L5.707 5H4.5v-.207zm9.5 7L15.293 10H16.5v.207L15.207 12H14v-.207zm-9.5-1.586V10h1.207L7 11.793V12H5.793L4.5 10.207z" fill="#000" fill-opacity=".9"/><path d="M12.175 6.736a1.733 1.733 0 0 1 1.773 1.37 3.501 3.501 0 0 1-3.378 2.893 3.667 3.667 0 0 1-3.163-1.86A3.485 3.485 0 0 1 7 7.53 3.28 3.28 0 0 1 7.392 6c.002.047.004.098.004.154 0 .674-.003 2.084 1.692 2.084 1.695 0 1.646-1.502 3.087-1.502z" fill="#43458B"/></svg>
